contributed-vectors/viral_icon.svg

<?xml version="1.0" encoding="UTF-8" standalone="no"?>
<svg
   xmlns:dc="http://purl.org/dc/elements/1.1/"
   xmlns:cc="http://creativecommons.org/ns#"
   xmlns:rdf="http://www.w3.org/1999/02/22-rdf-syntax-ns#"
   xmlns:svg="http://www.w3.org/2000/svg"
   xmlns="http://www.w3.org/2000/svg"
   xmlns:sodipodi="http://sodipodi.sourceforge.net/DTD/sodipodi-0.dtd"
   xmlns:inkscape="http://www.inkscape.org/namespaces/inkscape"
   inkscape:export-ydpi="96"
   inkscape:export-xdpi="96"
   inkscape:export-filename="viral_icon.png"
   inkscape:version="1.0.1 (3bc2e813f5, 2020-09-07)"
   sodipodi:docname="viral_icon.svg"
   xml:space="preserve"
   enable-background="new 0 0 192 192"
   viewBox="0 0 192 192"
   y="0px"
   x="0px"
   id="Слой_1"
   version="1.1"><path
     style="fill:#56595b;fill-opacity:1;stroke-width:1.75999999"
     d="M 80 32 L 8 96 A 88 88 0 0 0 96 184 A 88 88 0 0 0 158.1875 158.1875 L 158.1875 158.18555 L 165 92 L 80 32 z "
     id="circle1097" /><path
     style="fill:#9abeff;stroke-width:4"
     d="M 96 8 A 88 88 0 0 0 33.8125 33.8125 L 96 96 L 96 8 z "
     id="path835-3-6" /><path
     style="fill:#73ada4;stroke-width:4"
     d="M 96 8 L 96 96 L 158.1875 33.8125 A 88 88 0 0 0 96 8 z "
     id="path835-3" /><path
     style="fill:#54688c;stroke-width:4"
     d="M 158.1875 33.8125 L 96 96 L 158.1875 158.1875 A 88 88 0 0 0 184 96 A 88 88 0 0 0 158.1875 33.8125 z "
     id="path835-6" /><path
     style="fill:#54688c;stroke-width:4"
     d="M 33.8125 33.8125 A 88 88 0 0 0 8 96 L 96 96 L 33.8125 33.8125 z "
     id="path835-5" /><path
     style="opacity:1;vector-effect:none;fill:#ff837d;fill-opacity:1;stroke-width:4;paint-order:stroke fill markers"
     d="M 75 62 L 40 96 A 56 56 0 0 0 96 152 A 56 56 0 0 0 135.58594 135.55859 L 135.57031 135.57031 L 130 82 L 75 62 z "
     id="path839" /><path
     inkscape:connector-curvature="0"
     style="fill:#9abeff;stroke-width:4"
     d="m 96,40 a 56,56 0 0 1 39.57031,16.42968 L 96,96 Z"
     id="path835-1" /><path
     inkscape:connector-curvature="0"
     style="fill:#96dfd3;stroke-width:4"
     d="M 96,40 A 56,56 0 0 0 56.429688,56.42968 L 96,96 Z"
     id="path835" /><path
     inkscape:connector-curvature="0"
     style="opacity:1;vector-effect:none;fill:#8c72bd;fill-opacity:1;stroke-width:4;paint-order:stroke fill markers"
     d="M 56.429688,56.42968 A 56,56 0 0 0 40,96 h 56 z"
     id="path839-3" /><path
     inkscape:connector-curvature="0"
     style="fill:#96dfd3;stroke-width:4"
     d="m 96,60 a 36,36 0 0 1 25.4375,10.56248 L 96,96 Z"
     id="path835-2-2" /><path
     inkscape:connector-curvature="0"
     style="fill:#73ada4;stroke-width:4"
     d="M 135.57031,56.42968 96,96 135.57031,135.57032 A 56,56 0 0 0 152,96 56,56 0 0 0 135.57031,56.42968 Z"
     id="path835-6-3" /><circle
     style="opacity:1;vector-effect:none;fill:#bd9aff;fill-opacity:1;stroke-width:4;paint-order:stroke fill markers"
     id="path841"
     cx="96"
     cy="96"
     r="36" /><path
     inkscape:connector-curvature="0"
     style="fill:#f9de81;stroke-width:4"
     d="M 96,60 A 36,36 0 0 0 70.5625,70.56248 L 96,96 Z"
     id="path835-2" /><path
     inkscape:connector-curvature="0"
     style="fill:#9abeff;stroke-width:4"
     d="M 121.4375,70.56248 96,96 121.4375,121.43748 A 36,36 0 0 0 132,96 36,36 0 0 0 121.4375,70.56248 Z"
     id="path835-6-7" /><path
     inkscape:connector-curvature="0"
     style="fill:#a0a5af;stroke-width:4"
     d="M 96,96 70.5625,121.43748 A 36,36 0 0 0 96,132 36,36 0 0 0 121.4375,121.43748 Z"
     id="path1070" /><circle
     style="opacity:1;vector-effect:none;fill:#56595b;fill-opacity:1;stroke-width:4;paint-order:stroke fill markers"
     id="path831"
     cx="96"
     cy="96"
     r="16" /><circle
     style="opacity:1;vector-effect:none;fill:#ff837d;fill-opacity:1;stroke-width:4;paint-order:stroke fill markers"
     id="path829"
     cx="96"
     cy="96"
     r="12" /><path
     id="path959"
     class="st1"
     d="m 71.809309,61.028929 v 70.013281 c 0,1.65685 1.155764,2.31571 2.581568,1.47176 8.581006,-5.07921 36.873693,-21.82127 59.266353,-35.017151 1.42743,-0.841178 1.42737,-2.204432 -3.1e-4,-3.045206 L 74.394349,59.551285 a 1.7148406,1.7148406 150.24713 0 0 -2.58504,1.477644 z"
     sodipodi:nodetypes="cccc"
     inkscape:original-d="m 71.809309,58.028929 v 76.013281 c 0,0 37.452251,-22.17568 64.432651,-38.068241 z"
     inkscape:path-effect="#path-effect972"
     style="fill:#000000;fill-opacity:0;stroke-width:1.23198" /><path
     id="path961"
     class="st0"
     d="m 83.759532,81.726223 v 28.495487 c 0,1.65685 1.156884,2.3176 2.584183,1.47618 4.769871,-2.81195 15.280555,-9.00491 24.148925,-14.206735 1.42914,-0.838274 1.43036,-2.198188 0.002,-3.038246 L 86.345335,80.247283 a 1.7158382,1.7158382 150.23277 0 0 -2.585803,1.47894 z"
     sodipodi:nodetypes="cccc"
     inkscape:path-effect="#path-effect974"
     inkscape:original-d="m 83.759532,78.726223 v 34.495487 c 0,0 17.124548,-10.10225 29.321168,-17.247741 z"
     style="fill:#000000;fill-opacity:0;stroke-width:1.23198" /><rect
     id="rect963"
     x="83.759537"
     y="102.87306"
     class="st0"
     width="7.6382871"
     height="25.871618"
     style="fill:#000000;fill-opacity:0;stroke-width:1.23198" /><metadata
     id="metadata13"><rdf:RDF><cc:Work
         rdf:about=""><dc:format>image/svg+xml</dc:format><dc:type
           rdf:resource="http://purl.org/dc/dcmitype/StillImage" /><dc:title /></cc:Work></rdf:RDF></metadata><defs
     id="defs11"><inkscape:path-effect
       effect="fillet_chamfer"
       id="path-effect967"
       is_visible="true"
       lpeversion="1"
       satellites_param="F,0,0,1,0,3,0,1 @ F,0,0,1,0,3,0,1 @ F,0,0,1,0,3,0,1"
       unit="px"
       method="auto"
       mode="F"
       radius="3"
       chamfer_steps="1"
       flexible="false"
       use_knot_distance="true"
       apply_no_radius="true"
       apply_with_radius="true"
       only_selected="false"
       hide_knots="false" /><inkscape:path-effect
       effect="fillet_chamfer"
       id="path-effect970"
       is_visible="true"
       lpeversion="1"
       satellites_param="F,0,0,1,0,3,0,1 @ F,0,0,1,0,3,0,1 @ F,0,0,1,0,3,0,1"
       unit="px"
       method="auto"
       mode="F"
       radius="3"
       chamfer_steps="1"
       flexible="false"
       use_knot_distance="true"
       apply_no_radius="true"
       apply_with_radius="true"
       only_selected="false"
       hide_knots="false" /><inkscape:path-effect
       effect="fillet_chamfer"
       id="path-effect972"
       is_visible="true"
       lpeversion="1"
       satellites_param="F,0,0,1,0,3,0,1 @ F,0,0,1,0,3,0,1 @ F,0,0,1,0,3,0,1"
       unit="px"
       method="auto"
       mode="F"
       radius="3"
       chamfer_steps="1"
       flexible="false"
       use_knot_distance="true"
       apply_no_radius="true"
       apply_with_radius="true"
       only_selected="false"
       hide_knots="false" /><inkscape:path-effect
       effect="fillet_chamfer"
       id="path-effect974"
       is_visible="true"
       lpeversion="1"
       satellites_param="F,0,0,1,0,3,0,1 @ F,0,0,1,0,3,0,1 @ F,0,0,1,0,3,0,1"
       unit="px"
       method="auto"
       mode="F"
       radius="3"
       chamfer_steps="1"
       flexible="false"
       use_knot_distance="true"
       apply_no_radius="true"
       apply_with_radius="true"
       only_selected="false"
       hide_knots="false" /></defs><sodipodi:namedview
     inkscape:document-rotation="0"
     inkscape:object-paths="true"
     inkscape:snap-object-midpoints="true"
     inkscape:snap-center="false"
     inkscape:object-nodes="true"
     inkscape:snap-intersection-paths="true"
     inkscape:current-layer="Слой_1"
     inkscape:window-maximized="1"
     inkscape:window-y="30"
     inkscape:window-x="1920"
     inkscape:cy="45.494799"
     inkscape:cx="151.72287"
     inkscape:zoom="1.7383042"
     showgrid="false"
     id="namedview9"
     inkscape:window-height="1022"
     inkscape:window-width="1680"
     inkscape:pageshadow="2"
     inkscape:pageopacity="0"
     guidetolerance="10"
     gridtolerance="10"
     objecttolerance="10"
     borderopacity="1"
     bordercolor="#666666"
     pagecolor="#ffffff"
     showguides="true"
     inkscape:guide-bbox="true"><inkscape:grid
       type="xygrid"
       id="grid868" /></sodipodi:namedview><style
     type="text/css"
     id="style824">
	.st0{fill:#CD201F;}
	.st1{fill:#FFFFFF;}
</style><g
     transform="translate(-222.58199,84.185032)"
     id="Vonalak" /></svg>

<svg xmlns="http://www.w3.org/2000/svg" xml:space="preserve" id="Слой_1" x="0" y="0" version="1.1" viewBox="0 0 192 192"><path id="circle1097" d="M80 32 8 96a88 88 0 0 0 88 88 88 88 0 0 0 62.188-25.813v-.001L165 92 80 32z" style="fill:#56595b;fill-opacity:1;stroke-width:1.75999999"/><path id="path835-3-6" d="M96 8a88 88 0 0 0-62.188 25.813L96 96V8z" style="fill:#9abeff;stroke-width:4"/><path id="path835-3" d="M96 8v88l62.188-62.188A88 88 0 0 0 96 8z" style="fill:#73ada4;stroke-width:4"/><path id="path835-6" d="M158.188 33.813 96 96l62.188 62.188A88 88 0 0 0 184 96a88 88 0 0 0-25.813-62.188z" style="fill:#54688c;stroke-width:4"/><path id="path835-5" d="M33.813 33.813A88 88 0 0 0 8 96h88L33.812 33.812z" style="fill:#54688c;stroke-width:4"/><path id="path839" d="M75 62 40 96a56 56 0 0 0 56 56 56 56 0 0 0 39.586-16.441l-.016.011L130 82 75 62z" style="opacity:1;vector-effect:none;fill:#ff837d;fill-opacity:1;stroke-width:4;paint-order:stroke fill markers"/><path id="path835-1" d="M96 40a56 56 0 0 1 39.57 16.43L96 96Z" style="fill:#9abeff;stroke-width:4"/><path id="path835" d="M96 40a56 56 0 0 0-39.57 16.43L96 96Z" style="fill:#96dfd3;stroke-width:4"/><path id="path839-3" d="M56.43 56.43A56 56 0 0 0 40 96h56z" style="opacity:1;vector-effect:none;fill:#8c72bd;fill-opacity:1;stroke-width:4;paint-order:stroke fill markers"/><path id="path835-2-2" d="M96 60a36 36 0 0 1 25.438 10.562L96 96Z" style="fill:#96dfd3;stroke-width:4"/><path id="path835-6-3" d="M135.57 56.43 96 96l39.57 39.57A56 56 0 0 0 152 96a56 56 0 0 0-16.43-39.57Z" style="fill:#73ada4;stroke-width:4"/><circle id="path841" cx="96" cy="96" r="36" style="opacity:1;vector-effect:none;fill:#bd9aff;fill-opacity:1;stroke-width:4;paint-order:stroke fill markers"/><path id="path835-2" d="M96 60a36 36 0 0 0-25.438 10.562L96 96Z" style="fill:#f9de81;stroke-width:4"/><path id="path835-6-7" d="M121.438 70.562 96 96l25.438 25.437A36 36 0 0 0 132 96a36 36 0 0 0-10.563-25.438Z" style="fill:#9abeff;stroke-width:4"/><path id="path1070" d="m96 96-25.438 25.437A36 36 0 0 0 96 132a36 36 0 0 0 25.438-10.563Z" style="fill:#a0a5af;stroke-width:4"/><circle id="path831" cx="96" cy="96" r="16" style="opacity:1;vector-effect:none;fill:#56595b;fill-opacity:1;stroke-width:4;paint-order:stroke fill markers"/><circle id="path829" cx="96" cy="96" r="12" style="opacity:1;vector-effect:none;fill:#ff837d;fill-opacity:1;stroke-width:4;paint-order:stroke fill markers"/><path id="path959" d="M71.81 61.029v70.013c0 1.657 1.155 2.316 2.58 1.472 8.582-5.08 36.875-21.821 59.267-35.017 1.428-.841 1.428-2.205 0-3.045l-59.263-34.9a1.715 1.715 150.247 0 0-2.585 1.477z" style="fill:#000;fill-opacity:0;stroke-width:1.23198"/><path id="path961" d="M83.76 81.726v28.496c0 1.657 1.156 2.317 2.584 1.476 4.77-2.812 15.28-9.005 24.149-14.207 1.429-.838 1.43-2.198.002-3.038l-24.15-14.206a1.716 1.716 150.233 0 0-2.585 1.48z" class="st0" style="fill:#000;fill-opacity:0;stroke-width:1.23198"/><path id="rect963" d="M83.76 102.873h7.638v25.872H83.76z" class="st0" style="fill:#000;fill-opacity:0;stroke-width:1.23198"/><style id="style824" type="text/css">.st0{fill:#cd201f}</style></svg>
